X: 29421
T: Niel Gow's Style
R: strathspey
M: 4/4
K: Edorian
|:E2 E<F D>E F<G|E2 E>F E>F G<A|d>A d>A F>G A<B|1 E2 E<F E2 e2:|2 E2 E<F E2 g2||
|:b<e e>f d>e f<a|b<e e>f e>d B<c|d>c d>A F>G A<B|1 E2 E<D E2 g2:|2 E2 E<D E2 B2||

